X: 40
T: No_35_Turkey_Dance_Song_(f).krn
N: Derived from No_35_Turkey_Dance_Song_(f).krn
%%abc-version 2.0
%%abcx-abcm2ps-target-version 5.9.1 (29 Sep 2008)
%%abc-creator hum2abc beta
%%abcx-conversion-date 2019/03/15 08:36:49
%%humdrum-veritas 1885750063
%%humdrum-veritas-data 3867758967
%%linebreak <none>
%%barnumbers 0
L: 1/8
M: 2/4
K: E clef=bass
E2 [I:setbarnb 1]| 
!fermata!E2C2 ||  
[M:3/4]!fermata!B,2F,2C2 | 
B,7/C/ (3G,G,F, ||  
[M:2/4]E,(3:2:2E,/E,C,2 ||  
[M:3/4]G,/G,/G,/F,/ (3E,E,F, (3E,E,D, | 
E,4z2 |]  



